X: 467
T: Mai Cai
L: 1/8
M: 3/4
K: F
d d d f [I:setbarnb 1]| 
d Ac4 | 
[M:2/4]d d d f | 
[M:3/4]c AG4 | 
[M:2/4]G A G A | 
G Ac2 | 
F DC2 | 
c A G c | 
C D F G | 
F DC2 | 
d d f A | 
c4 |]

@@@ Tune index: 9341
